X: 492
%
U:~=!turn!
T: Mrs. Moray of Abercarney
C:Nath Gow
O:Scotland
B:Keith Norman MacDonald : "The Skye collection of the best reels & strathspeys extant" : 1887
Z:Ralph Palmer
N:I would have notated some measures differently, but I tried to follow MacDonald faithfully. rp.
N:Three tunes of this name, or Mrs. Moray of Abercairny, in this collection.
R:Reel
M:C|
L:1/8
K:D
A | F D2 F ABAF | (ABd)F E2 EA | FDD>F ABAF | AB dF A2 AB | F C2 F ABAF |
(ABd).F E2 EA | FD-D>F ABAF | AB dF A2 A || B | Td>efd ecdB | AF dF [C2E2] [CE]e |
Td>efa efde | dB AF A2 AB | d>efd ecdB | AF dF TE2 EG | FA- A>d cdef | dB AF D2 D |]


